X:1
P: Annie Laurie
C: arr. T. Traub 10-2002
R: Reel
M: 4/4
K: D
L: 1/4
F/E/|"D"D D d> c| "G"c B2 B|"D"A F "Bm"F E/D/|"Em  A"E3 F/E/|"D"D D d> c| "G"c B2 B|"D"A F "E  A"F>E|"D"D3 "A"A||
"D"d d "A" e> e|"D"f3 A|"Bm"d d "Em"e> e|"F#"f3 f/e/|"Bm"d>c "G"B/c/d/B/|"D"A "    A"F2 F/E/|"D"D d "A"F > E|"D"D3 |]
